X:12138
T:O Ye Broom
M:4/4
L:1/8
Q:60
S:From the "Beggar's Opera" by John Gay, 1728
W:O ye Broom, ye bonny, bonny Broom,
W:The Broom of Cowden-knows,
W:I wish I were at Home again
W:To milk my Daddys Ews.
W:How blyth ilk Morn was I to see
W:The Swain come o'er the Hill.
W:He skipt ye Burn and flew to me,
W:I met him with good Will.
K:D
D3F A3B | A>F E>F D2 d>A | B2 d>e d/2e/2f e>d | B6 d2 |
A>B d>e d/2e/2f e>d | d2 D>E F3 D | G2 A>B A>B A>F | E7 D |
D3F A3B | A>F E>F D2 d>A | B2 d>e d/2e/2f e>d | B6 d2 |
A>B d>e d/2e/2f e>d | d2 D>E F3 D | G2 A>B A>B A>F | E8 ||
